svg/nature/mushroom_fill.svg

<?xml version="1.0" encoding="UTF-8"?>
<svg width="24px" height="24px" viewBox="0 0 24 24" version="1.1" xmlns="http://www.w3.org/2000/svg" xmlns:xlink="http://www.w3.org/1999/xlink">
    <title>mushroom_fill</title>
    <g id="Icon" stroke="none" stroke-width="1" fill="none" fill-rule="evenodd">
        <g id="Nature" transform="translate(-288.000000, -146.000000)" fill-rule="nonzero">
            <g id="mushroom_fill" transform="translate(288.000000, 146.000000)">
                <path d="M24,0 L24,24 L0,24 L0,0 L24,0 Z M12.5935,23.2578 L12.5819,23.2595 L12.5109,23.295 L12.4919,23.2987 L12.4767,23.295 L12.4057,23.2595 C12.3958,23.2564 12.387,23.259 12.3821,23.2649 L12.378,23.2758 L12.3609,23.7031 L12.3659,23.7235 L12.3769,23.7357 L12.4805,23.8097 L12.4953,23.8136 L12.5071,23.8097 L12.6107,23.7357 L12.6233,23.7197 L12.6267,23.7031 L12.6096,23.2758 C12.6076,23.2657 12.601,23.2593 12.5935,23.2578 Z M12.8584,23.1453 L12.8445,23.1473 L12.6598,23.2397 L12.6499,23.2499 L12.6472,23.2611 L12.6651,23.6906 L12.6699,23.7034 L12.6784,23.7105 L12.8793,23.8032 C12.8914,23.8069 12.9022,23.803 12.9078,23.7952 L12.9118,23.7812 L12.8777,23.1665 C12.8753,23.1546 12.8674,23.147 12.8584,23.1453 Z M12.143,23.1473 C12.1332,23.1424 12.1222,23.1453 12.1156,23.1526 L12.1099,23.1665 L12.0758,23.7812 C12.0751,23.7927 12.0828,23.8019 12.0926,23.8046 L12.1083,23.8032 L12.3092,23.7105 L12.3186,23.7024 L12.3225,23.6906 L12.3404,23.2611 L12.3372,23.2485 L12.3278,23.2397 L12.143,23.1473 Z" id="MingCute"></path>
                <path d="M12,2.65723 C12.7874,2.65723 13.563,2.78508 14.317,3.03317 C13.5081,3.7651 13,4.82321 13,6 C13,8.20914 14.7908,10 17,10 C18.3817,10 19.5998,9.29943 20.3184,8.23412 C20.4911,8.48052 20.6595,8.72745 20.8233,8.97303 C21.8229,10.4724 21.6741,12.1805 20.8268,13.4403 C19.9906,14.6836 18.4784,15.4962 16.7532,15.347 C16.2252,15.3013333 15.6913333,15.2594444 15.1628889,15.2236741 L14.3757,15.1749 L15.2331,18.1759 C15.7640091,20.0342273 14.426988,21.8843738 12.5281246,21.9947975 L12.3485,22 L11.6514,22 C9.71868727,22 8.30701095,20.2061664 8.72250458,18.3500414 L8.76685,18.1759 L9.62427,15.1749 C8.84389,15.2185 8.03868,15.2785 7.24671,15.347 C5.52152,15.4962 4.0093,14.6836 3.17314,13.4403 C2.32581,12.1805 2.17698,10.4724 3.17664,8.97303 C3.78037,8.06752 4.44845,7.14361 5.15492,6.29584 C7.10822,3.95189 9.49431,2.65723 12,2.65723 Z M16.4328,4.08155 C17.2885,4.65719 18.0983,5.39986 18.845,6.29584 L18.9541,6.42775 L18.9541,6.42775 C18.7582,7.32679 17.9577,8 17,8 C15.8954,8 15,7.10457 15,6 C15,5.09243 15.6045,4.32605 16.4328,4.08155 Z" id="形状" fill="#09244B"></path>
            </g>
        </g>
    </g>
</svg>

<svg xmlns="http://www.w3.org/2000/svg" width="24" height="24"><g fill="none" fill-rule="nonzero"><path d="M24 0v24H0V0h24ZM12.594 23.258l-.012.002-.071.035-.02.004-.014-.004-.071-.036c-.01-.003-.019 0-.024.006l-.004.01-.017.428.005.02.01.013.104.074.015.004.012-.004.104-.074.012-.016.004-.017-.017-.427c-.002-.01-.009-.017-.016-.018Zm.264-.113-.014.002-.184.093-.01.01-.003.011.018.43.005.012.008.008.201.092c.012.004.023 0 .029-.008l.004-.014-.034-.614c-.003-.012-.01-.02-.02-.022Zm-.715.002a.023.023 0 0 0-.027.006l-.006.014-.034.614c0 .012.007.02.017.024l.015-.002.201-.093.01-.008.003-.011.018-.43-.003-.012-.01-.01-.184-.092Z"/><path fill="#09244B" d="M12 2.657c.787 0 1.563.128 2.317.376a4 4 0 1 0 6.001 5.201c.173.247.341.493.505.739 1 1.5.851 3.207.004 4.467-.836 1.244-2.349 2.056-4.074 1.907a85.659 85.659 0 0 0-1.59-.123l-.787-.05.857 3.002a3 3 0 0 1-2.705 3.819l-.18.005h-.697a3 3 0 0 1-2.928-3.65l.044-.174.857-3.001c-.78.043-1.585.103-2.377.172-1.725.15-3.238-.663-4.074-1.907-.847-1.26-.996-2.968.004-4.467a31.607 31.607 0 0 1 1.978-2.677C7.108 3.952 9.495 2.657 12 2.657Zm4.433 1.425c.855.575 1.665 1.318 2.412 2.214l.11.132a2 2 0 1 1-2.522-2.346Z"/></g></svg>
